!!!OTL: An Spealad&oacute;ir, S. 134
!!!id: I0552
**kern
*clefG2
*k[]
*C:
{8g
8f
=1
8e
8d
8e
8c
8cc
8ee
8dd
8cc
=2
8b
8g
8f
8e
8f
8a
8g
8f
=3
8e
8d
8e
8c
8B
8c
8d
8e
=4
8f
16cccc
16cccc}
{8.g
16f
=5
8e
8d
8e
8c
8cc
8ee
8dd
8cc
=6
8b
8g
8f
8e
8f
8a
8g
8f
=7
8e
8d
8e
8c
8B
8c
8d
8f
=8
8e
16dddd
16cccc}
{8e
8f
=9
8g
8e
8c
8e
8g
8e
8c
8e
=10
8g
8f
8e
8d
4c
8d
8e
=11
8f
8d
8B
8d
8f
8d
8B
8d
=12
8f
8e
8d
16eeee
16cccc}
{8g
8f
=13
8e
8d
8e
8c
8cc
8ee
8dd
8cc
=14
8b
8g
8f
8e
8f
8a
8g
8f}
=15
{8e
8d
8e
8c
8B
8c
8d
8f
=16
4e
8c
8c
4c}
==
*-
!!!minrhy: 16
!!!meters: 4/4 ]  ZZ[5
!!!cut: An Spealad&oacute;ir, S. 134
!!!reg: Irland
!!!trd: O'SULLIVAN, Donal: Song of the Irish
!!!rhy1: X_X_  X_X_X_X_X_X_X_X_  X_X_X_X_X_X_X_X_  X_X_X_X_X_X_X_X_  X__X_X_X__
!!!rhy2: X_.X  X_X_X_X_X_X_X_X_  X_X_X_X_X_X_X_X_  X_X_X_X_X_X_X_X_  X__X_X_X__
!!!key: I0552  16  C 4/4 ]  ZZ[5
!!!mod: HEPTATONIK IONISCH]  AMBITUS[11
!!!kad: 21-741
!!!akz: 3+1743-742_3+1743-731_5551444-7_3+174_3-731_
!!!fot: 'a__aw_b__av_c__
!!!for: 'a__av_b__aw_c__
!!!fok: '$d_$d_$d_$d_Sd_
!! PHRAS[VORWIEGEND AUFTAKTIG]
!!!fkt: Heimatlied
!! IRISCHE V
!! PR[16] 2K[6] 2G[25] 3K[2] 3G[2] 4A[4] 4Ü[0] 5A[0] 6K[0] 6G[2]
!! 7K[0] 7G[0] 8A[0] MEHR[0] SI[41] ABS[51] SR[31] SP[10]
!! ST[16] 2k[6] 2g[18] 3k[6] 3g[12] 4d[2] 4ü[0] 5d[0] 6k[0] 6g[0]
!! 7k[0] 7g[0] 8d[0] mehr[0] si[43] dm[-2] sr[24] sp[20]
!! 1F[31] 2F[62] 3F[8] 4F[0] LF[0] 2P[0] 3P[0] 4P[0] TRI[0] DF[3] AB[52]
!! TF[0] U3K[0] U3[0] U4[0] U4Ü[0] U5[0] U6K[0] U6[0] U7K[0] U7[0]
!! N1[8] N2K[0] N2[12] N3K[0] N3[4] N4[8] N4Ü[0] N5[23] N6K[0] N6[8]
!!!n7k: 0] N7[15] O1[13] O2K[0] O2[8] O3K[0] O3[2] HÖ[0
!!!RNB: symbol: &oacute;= o acute  (UTF-8: Ã³)
